epam-assets/icon-sources/18/navigation-dependency.svg

<svg width="18" height="18" viewBox="0 0 18 18" fill="none" xmlns="http://www.w3.org/2000/svg">
<g id="18/navigation-dependency">
<path id="icon" fill-rule="evenodd" clip-rule="evenodd" d="M2.25 6.75V11.25H6.75V9.75H8.25V14.25H11.25V15.75H15.75V11.25H11.25V12.75H9.75V5.25H11.25V6.75H15.75V2.25H11.25V3.75L8.25 3.75V8.25H6.75V6.75H2.25ZM3.75 8.25V9.75H5.25V8.25H3.75Z" fill="#6C6F80"/>
</g>
</svg>

<svg xmlns="http://www.w3.org/2000/svg" width="18" height="18" fill="none" viewBox="0 0 18 18">
  <path fill="#6C6F80" fill-rule="evenodd" d="M2.25 6.75v4.5h4.5v-1.5h1.5v4.5h3v1.5h4.5v-4.5h-4.5v1.5h-1.5v-7.5h1.5v1.5h4.5v-4.5h-4.5v1.5h-3v4.5h-1.5v-1.5h-4.5Zm1.5 1.5v1.5h1.5v-1.5h-1.5Z" clip-rule="evenodd"/>
</svg>
